!!!COM:	Busnoys, Antoine
!!!CDT:	~1430///-1492/11/06
!!!OTL:	Lautrier que passa
!!!AGN:	Song; Chanson
!!!SCT:	Bus3035
!!!SCA:	Bus3035
!!!voices:	4
**kern	**kern	**kern	**kern
*staff4	*staff3	*staff2	*staff1
*Ivox	*Ivox	*Ivox	*Ivox
*I"Bassus	*I"Altus	*I"Tenor	*I"Superius
*I'B	*I'A	*I'T	*I'S
*clefF4	*clefGv2	*clefGv2	*clefG2
*k[b-]	*k[b-]	*k[b-]	*k[b-]
*M2/1	*M2/1	*M2/1	*M2/1
*met(C|)	*met(C|)	*met(C|)	*met(C|)
=1-	=1-	=1-	=1-
0r	0r	1G	0g
.	.	1G	.
=2	=2	=2	=2
1GG	0D	1G	0r
1GG	.	1G	.
=3	=3	=3	=3
1GG	0r	0B-	1d
1GG	.	.	1d
=4	=4	=4	=4
0BB-	1D	1.B-	1d
.	1D	.	1d
.	.	4A	.
.	.	4G	.
=5	=5	=5	=5
1.BB-	1D	0F	0f
.	1D	.	.
4AA	.	.	.
4GG	.	.	.
=6	=6	=6	=6
0FF	0F	0r	1.f
.	.	.	4e
.	.	.	4d
=7	=7	=7	=7
0r	1.F	0A	0c
.	4E	.	.
.	4D	.	.
=8	=8	=8	=8
0AA	1C	0r	1r
.	1C	.	1c
=9	=9	=9	=9
0r	1BB-	1B-	2d
.	.	.	2.f
.	[1F	1A	.
.	.	.	4e
.	.	.	2c
=10	=10	=10	=10
1BB-	2F]	1B-	1d
.	2D	.	.
1AA	2E	1c	2c
.	2C	.	[2e
=11	=11	=11	=11
1BB-	2F	1d	4e]
.	.	.	4d
.	2D	.	2.f
1C	2G	[1c	.
.	.	.	4e
.	2E	.	[2g
=12	=12	=12	=12
0D	2A	1c]	4g]
.	.	.	4f
.	1F	.	1a
.	.	1Bni	.
.	4E	.	4g
.	4F	.	4f
=13	=13	=13	=13
0C	2G	0c	0e
.	2.A	.	.
.	4G	.	.
.	4F	.	.
.	4E	.	.
=14	=14	=14	=14
1BB-	2D	0r	1r
.	2.G	.	.
1BB-	.	.	1g
.	4A	.	.
.	2B-	.	.
=15	=15	=15	=15
1AA	4c	0r	1a
.	4B-	.	.
.	4A	.	.
.	4G	.	.
1AA	2.F#i	.	1cc
.	4E	.	.
=16	=16	=16	=16
0GG	0G	0r	1b-
.	.	.	[1g
=17	=17	=17	=17
1.BB-	1r	1B-	2g]
.	.	.	2f
.	[1d	1B-	1g
4AA	.	.	.
4GG	.	.	.
=18	=18	=18	=18
0FF	2d]	1A	2a
.	2c	.	1a
.	[1c	1A	.
.	.	.	2f
=19	=19	=19	=19
1C	2c]	0G	1e
.	2B-	.	.
1C	[1G	.	2e
.	.	.	[2g
=20	=20	=20	=20
1BB-	2G]	1.B-	4g]
.	.	.	4f
.	2F	.	2.d
1BB-	1D	.	.
.	.	.	4e
.	.	4A	[2f
.	.	4G	.
=21	=21	=21	=21
0AA	1r	0F	4f]
.	.	.	4e
.	.	.	2c
.	1c	.	2r
.	.	.	[2cc
=22	=22	=22	=22
0GG	1.d	0r	2cc]
.	.	.	2bni
.	.	.	2bni
.	2c	.	2a
=23	=23	=23	=23
0r	3%2A	1c	3%2cc
.	3%2E	.	3%2g
.	.	1c	.
.	3%2F	.	3%2a
=24	=24	=24	=24
0r	3%2G	1B-	3%2b-
.	3%2D	.	3%2f
.	.	1B-	.
.	3%2E	.	3%2g
=25	=25	=25	=25
0r	3%2F	0A	3%2a
.	3%2C	.	3%2e
.	3%2D	.	3%2f#i
=26	=26	=26	=26
*M3/1	*M3/1	*M3/1	*M3/1
*met(O/3)	*met(O/3)	*met(O/3)	*met(O/3)
0.GG	1r	1G	0g
.	1r	1r	.
.	1E	1G	1e
=27	=27	=27	=27
0.r	0.D	1.d	1.f
.	.	2e	2e
.	.	2.f	2.d
.	.	4g	4c
=28	=28	=28	=28
1r	0A	1.e	0c
1r	.	.	.
.	.	2c	.
1GG	1G	1d	1r
=29	=29	=29	=29
1.D	1.F	1.B-	0.r
2E	2E	2G	.
2.F	1D	1A	.
4G	.	.	.
=30	=30	=30	=30
1.E	1G	0G	0g
.	1.B-	.	.
2C	.	.	.
1D	.	1r	1f
.	2A	.	.
=31	=31	=31	=31
1.BB-	0G	0.r	1g
.	.	.	1b-
2GG	.	.	.
1AA	1F#i	.	1cc
=32	=32	=32	=32
0GG	0G	1r	1.b-
.	.	1r	.
.	.	.	2a
1r	1E	1G	1g
=33	=33	=33	=33
0.r	1D	1.d	1f
.	1.F	.	1.a
.	.	2e	.
.	.	2.f	.
.	2E	.	2g
.	.	4g	.
=34	=34	=34	=34
1r	0C	1.e	1.g
1r	.	.	.
.	.	2c	2e
1GG	1r	1d	2.g
.	.	.	4f
=35	=35	=35	=35
1.D	0.r	1.B-	0d
2E	.	2G	.
2.F	.	1A	1a
4G	.	.	.
=36	=36	=36	=36
1.E	1G	0.G	1.b-
.	1E	.	.
2C	.	.	4a
.	.	.	4b-
1D	1F	.	2.a
.	.	.	4g
=37	=37	=37	=37
1.BB-	1G	0.r	1.g
.	1B-	.	.
2C	.	.	4f
.	.	.	4e
1AA	1c	.	2.f#i
.	.	.	4e
=38	=38	=38	=38
0GG	0B-	1r	1g
.	.	1r	1r
1r	1r	1G	1g
=39	=39	=39	=39
0.r	0.r	1.B-	1.g
.	.	4A	2e
.	.	4G	.
.	.	2A	2f
.	.	2B-	2g
=40	=40	=40	=40
0.r	0.r	1c	2e
.	.	.	2.a
.	.	1A	.
.	.	.	4g
.	.	.	1f
.	.	1d	.
.	.	.	[2b-
=41	=41	=41	=41
0.r	0.r	1.B-	4b-]
.	.	.	4a
.	.	.	1g
.	.	2A	2f
.	.	2B-	2g
.	.	2G	2e
=42	=42	=42	=42
1r	1r	0A	0f
1r	1r	.	.
1GG	2.B-	1r	1r
.	4c	.	.
=43	=43	=43	=43
1.BB-	2d	0.r	0.r
.	1d	.	.
2GG	4c	.	.
.	4B-	.	.
2AA	2c	.	.
2BB-	4B-	.	.
.	4A	.	.
=44	=44	=44	=44
1C	2G	0.r	0.r
.	2.A	.	.
1AA	.	.	.
.	4F	.	.
.	1F	.	.
1D	.	.	.
.	2B-	.	.
=45	=45	=45	=45
2C	2A	0.r	0.r
1BB-	1G	.	.
4AA	4F#i	.	.
4GG	4E	.	.
1AA	1F#i	.	.
=46	=46	=46	=46
*M2/1	*M2/1	*M2/1	*M2/1
*met(C|)	*met(C|)	*met(C|)	*met(C|)
0GG	0G	0r	0g
=47	=47	=47	=47
0r	0r	1G	1g
.	.	1G	1g
=48	=48	=48	=48
1GG	0G	1G	1.g
1GG	.	1G	.
.	.	.	4f
.	.	.	4e
=49	=49	=49	=49
1GG	1G	0B-	1d
1GG	1G	.	[1g
=50	=50	=50	=50
0BB-	1.G	1.B-	2g]
.	.	.	2f
.	.	.	1d
.	4F	4A	.
.	4E	4G	.
=51	=51	=51	=51
1.BB-	1.D	0F	1r
.	.	.	[1d
4AA	2E	.	.
4GG	.	.	.
=52	=52	=52	=52
0FF	0F	0r	2d]
.	.	.	2c
.	.	.	1A
=53	=53	=53	=53
0r	1G	1B-	1G
.	1E	1A	1c
=54	=54	=54	=54
1BB-	1D	1B-	1d
1AA	[1A	1c	1c
=55	=55	=55	=55
1BB-	2A]	1d	1f
.	2G	.	.
1C	[1G	[1c	1e
=56	=56	=56	=56
0D	1G]	1c]	3%4f
.	1F	1Bni	.
.	.	.	3%2d
=57	=57	=57	=57
0C	1G	0c	1e
.	[1A	.	3d
.	.	.	3%2e
=58	=58	=58	=58
1BB-	2A]	0r	3%4f
.	2G	.	.
1BB-	[1G	.	.
.	.	.	3%2d
=59	=59	=59	=59
1AA	1G]	0r	1e
1AA	1F#i	.	3d
.	.	.	3%2c
=60	=60	=60	=60
0GG	0G	0r	1B-
.	.	.	[1d
=61	=61	=61	=61
1.BB-	0D	1B-	2d]
.	.	.	2e
.	.	1B-	[1f
4AA	.	.	.
4GG	.	.	.
=62	=62	=62	=62
0FF	1r	1A	2f]
.	.	.	2g
.	1F	1A	2.a
.	.	.	4g
=63	=63	=63	=63
1C	3%4G	0G	1e
1C	.	.	[1g
.	3%2E	.	.
=64	=64	=64	=64
1BB-	3%2D	1.B-	2g]
.	.	.	2f
.	1F	.	.
1BB-	.	.	[1d
.	.	4A	.
.	3G	.	.
.	.	4G	.
=65	=65	=65	=65
0AA	1A	0F	1d]
.	1A	.	1c
=66	=66	=66	=66
0GG	1D	0r	1B-
.	1E	.	1G
=67	=67	=67	=67
0r	0F	1c	0A
.	.	1c	.
=68	=68	=68	=68
3%4GG	0G	1B-	1G
.	.	1B-	[1g
3%2BB-	.	.	.
=69	=69	=69	=69
3%2C	0r	0A	1g]
3%4D	.	.	.
.	.	.	1f#i
=70	=70	=70	=70
0GGl	0dl	0Gl	0gl
==	==	==	==
*-	*-	*-	*-
!!!RDF**kern: l=long note in original notation
!!!RDF**kern: i=editorial accidental
!!!ENC:	Chris Gage 04-22-2015
!!!END:	2015/06/07/
!!!EED:	Jesse Rodin
!!!EEV:	2015/09/21/
!!!ONB:	Translated from MusicXML and edited on 2015/09/21/ by Craig Sapp
!!muse2ps: C^@{COM}^i2I150v85,85,85,150Q16
